X:113
T:Ballet Hollandoise, La
M:6/8
L:1/8
B:Thompson's Compleat Collection of 200 Favourite Country Dances, vol. 3 (London, 1773)
Z:Transcribed and edited by Flynn Titford-Mock, 2007
Z:abc's:AK/Fiddler's Companion
K:G
d2c BAG | AGF G2D | d2c BAG | AGF G3::ABG ABG | ABG A2A | c2B A2G | F2E D3 |
ABG ABG | ABG A2A | c2B A2G | AGF G3::g2g f2f | e2e def | gag fed | ed^c d3 :|
|: dBG dBG | dBG A2B | c2B A2G | F2E D3 | GBd GBd | GcB dgf | g2c BAG | AGF G3 :|

